X: 7444
T:Miss Jane Bruce's Jig
M:6/8
O:England
A:North-West
R:Jig
K:D
A/G/|\
FAd dcd| Adf fef| afd afd| cee e2A/G/|\
FAd dcd| Adf fef| afd gec| ddd d2::\
f/g/|\
afd dcB| ABA A2A| fab afd| cee e2f/g/|\
afd cBe| dce a2g| f/g/af gec| ddd d2:|
